icon/ir/calendar.svg

<svg stroke-width="1.5" viewBox="0 0 24 24" fill="none" xmlns="http://www.w3.org/2000/svg" height="1em" width="1em">
  <path d="M15 4V2M15 4V6M15 4H10.5M3 10V19C3 20.1046 3.89543 21 5 21H19C20.1046 21 21 20.1046 21 19V10H3Z" stroke="currentColor" stroke-linecap="round" stroke-linejoin="round"/>
  <path d="M3 10V6C3 4.89543 3.89543 4 5 4H7" stroke="currentColor" stroke-linecap="round" stroke-linejoin="round"/>
  <path d="M7 2V6" stroke="currentColor" stroke-linecap="round" stroke-linejoin="round"/>
  <path d="M21 10V6C21 4.89543 20.1046 4 19 4H18.5" stroke="currentColor" stroke-linecap="round" stroke-linejoin="round"/>
</svg>

<svg width="24" height="24" stroke-width="1.5" fill="none" xmlns="http://www.w3.org/2000/svg"><path d="M15 4V2m0 2v2m0-2h-4.5M3 10v9a2 2 0 0 0 2 2h14a2 2 0 0 0 2-2v-9H3ZM3 10V6a2 2 0 0 1 2-2h2M7 2v4M21 10V6a2 2 0 0 0-2-2h-.5" stroke="currentColor" stroke-linecap="round" stroke-linejoin="round"/></svg>
